X: 5465
T: Bunch Of Roses, The
R: jig
M: 6/8
K: Edorian
|g2g gab|agf fga|g2e efg|f^dB B2 f|g2g gab|
agf fga|gfe fe^d|1 Bee e2 f:|2 Bee e2 c||
|:d2B Bcd|e2B AGF|E2e e^de|f^dB B2c|ddd fed|
dcB AGF|GFE FED|1 EEE E2 c:|2 DEE E3||

